X:845
M:C
L:1/8
Q:1/4=140
K:F
c|A<F F>c A/B/c/A/ Fc|~f<c A/B/c/A/ B<G G>c|A<F F>c A/B/c/A/ F>c|
f2 a/g/f/e/ f<FF:|
c|f2 a/g/f/e/ f>de>c|e/f/g f/g/a g<d d>e|f2 a/g/f g>de>c|f<d c>B A<F ~F>c|
f2 a/g/f/e/ f>de>c|e/f/g f/g/a g<d d>g|a/g/f g/f/e f/e/d d/c/B|

